X: 7392
T: Cloch Na Ceithre Mhile
R: reel
M: 4/4
K: Adorian
G,2|:~A,2EA, CA,EA,|~A,2GE DB,A,B,|G,3 A, B,G,A,B,|G,B,~B,2 B,DCB,|
~A,2A,B, CDEG|ceBc AEAB|c/B/ABG AGEA|1 GEDB, G,A,B,G,:|2 GEDB, G,A,B,D||
EA A/A/A eAcA|D2EG DB,A,B,|~G,2 B,G, DG,B,G,|B/c/d AB GBAG|
E/F/G AB ceBc|AGEA GBB/B/B|BccB AGEA|GEDB, G,A,B,D|
EA A/A/A eAcA|D2EG DB,A,B,|~G,2 B,G, DG,B,G,|B/c/d AB GBAG|
E/F/G AB ceBc|AGEA GBB/B/B|cBAB AGEA|GEDB, G,A,B,G,||

